; generated by PrusaSlicer 2.9.2 on 2025-05-25 at 13:59:10 UTC


;
;

;
;

;
;

;
;
; 

; external perimeters extrusion width = 0.45mm
; perimeters extrusion width = 0.45mm
; infill extrusion width = 0.45mm
; solid infill extrusion width = 0.45mm
; top infill extrusion width = 0.40mm
; support material extrusion width = 0.35mm
; first layer extrusion width = 0.42mm

M73 P0 R14
M73 Q0 S14
M201 X2500 Y2500 Z400 E5000 ; sets maximum accelerations, mm/sec^2
M203 X180 Y180 Z12 E80 ; sets maximum feedrates, mm / sec
M204 P2000 R1250 T2500 ; sets acceleration (P, T) and retract acceleration (R), mm/sec^2
M205 X8.00 Y8.00 Z2.00 E10.00 ; sets the jerk limits, mm/sec
M205 S0 T0 ; sets the minimum extruding and travel feed rate, mm/sec

M486 S0
M486 ALego_to_Stepper_28BYJ-48_Adapter.stl
M486 S-1

;TYPE:Custom
M862.3 P "MINI" ; printer model check
G90 ; use absolute coordinates
M83 ; extruder relative mode
M104 S170 ; set extruder temp for bed leveling
M140 S60 ; set bed temp
M109 R170 ; wait for bed leveling temp
M190 S60 ; wait for bed temp
M204 T1250 ; set travel acceleration
G28 ; home all without mesh bed level
G29 ; mesh bed leveling 
M204 T2500 ; restore travel acceleration
M104 S215 ; set extruder temp
G92 E0
G1 Y-2 X179 F2400
G1 Z3 F720
M109 S215 ; wait for extruder temp

; intro line
G1 X170 F1000
G1 Z0.2 F720
G1 X110 E8 F900
G1 X40 E10 F700
M73 P1 R14
M73 Q1 S14
G92 E0

M221 S95 ; set flow
G21 ; set units to millimeters
G90 ; use absolute coordinates
M83 ; use relative distances for extrusion

M900 K0.2 ; Filament gcode LA 1.5
; ; Filament gcode LA 1.0




M107
;LAYER_CHANGE
;Z:0.2
;HEIGHT:0.2
G1 E-3.2 F4200
G1 Z.4 F720
G1 X81.76 Y82.002 F9000
G1 Z.2 F720
G1 E3.2 F2400
M204 P600
;TYPE:Skirt/Brim
;WIDTH:0.42
G1 F1200
G3 X87.93 Y78.723 I8.474 J8.499 E.2223
G3 X91.358 Y78.615 I2.098 J12.184 E.10788
G3 X100.253 Y84.68 I-1.495 J11.748 E.35042
M73 P2 R14
M73 Q2 S14
G3 X100.166 Y95.489 I-11.39 J5.313 E.35034
G3 X92.227 Y101.247 I-10.41 J-6 E.31675
G3 X79.747 Y95.321 I-2.18 J-11.512 E.46326
G3 X79.834 Y84.511 I11.389 J-5.314 E.35038
G3 X81.718 Y82.044 I10.4 J5.99 E.0976
M204 P1000
G1 X81.979 Y82.307 F9000
M204 P600
G1 F1200
G3 X86.716 Y79.409 I8.479 J8.54 E.1757
G3 X91.31 Y78.989 I3.326 J11.037 E.14563
G3 X99.912 Y84.841 I-1.467 J11.405 E.3385
G3 X100.147 Y94.645 I-11.164 J5.172 E.31627
G3 X98.079 Y97.635 I-9.715 J-4.508 E.11454
G3 X93.284 Y100.591 I-8.536 J-8.481 E.17827
G3 X80.088 Y95.16 I-3.256 J-10.835 E.48413
G3 X79.853 Y85.355 I11.164 J-5.173 E.3163
G3 X81.921 Y82.365 I9.716 J4.509 E.11454
G3 X81.936 Y82.349 I8.536 J8.482 E.00069
M204 P1000
G1 E-2.24 F4200
;WIPE_START
G1 F7200
G1 X81.979 Y82.307 E-.03331
G3 X83.244 Y81.215 I8.479 J8.54 E-.92669
;WIPE_END
G1 Z.4 F720
G1 X83.714 Y84.052 F9000
G1 Z.2 F720
G1 E3.2 F2400
M204 P600
G1 F1200
G3 X86.383 Y82.183 I6.032 J5.777 E.10282
G3 X91.381 Y81.499 I3.635 J7.954 E.16045
G3 X97.674 Y85.903 I-1.541 J8.9 E.24875
G3 X97.36 Y94.644 I-8.478 J4.072 E.28523
G3 X86.042 Y97.649 I-7.353 J-4.879 E.40146
G3 X81.398 Y89.556 I3.735 J-7.522 E.31018
M73 P3 R14
M73 Q3 S14
G3 X83.672 Y84.095 I8.348 J.273 E.18959
M204 P1000
G1 X83.949 Y84.355 F9000
M204 P600
G1 F1200
G3 X87.284 Y82.225 I5.863 J5.504 E.12536
G3 X89.63 Y81.773 I2.838 J8.411 E.07514
G3 X97.342 Y86.083 I.285 J8.545 E.2911
G3 X97.037 Y94.45 I-8.144 J3.892 E.27297
G3 X86.208 Y97.31 I-7.03 J-4.684 E.38392
G3 X81.775 Y89.569 I3.566 J-7.182 E.2966
G3 X83.908 Y84.399 I8.037 J.29 E.1791
M204 P1000
G1 X84.172 Y84.654 F9000
M204 P600
G1 F1200
G3 X91.281 Y82.247 I5.889 J5.689 E.24446
G3 X97.011 Y86.264 I-1.438 J8.147 E.22654
G3 X96.714 Y94.256 I-7.811 J3.711 E.26068
G3 X82.986 Y93.731 I-6.703 J-4.482 E.51555
G3 X83.28 Y85.754 I7.817 J-3.706 E.26014
G3 X84.131 Y84.697 I6.781 J4.589 E.0426
M204 P1000
G1 X84.407 Y84.963 F9000
M204 P600
G1 F1200
G3 X89.664 Y82.526 I5.747 J5.508 E.18595
G3 X96.679 Y86.444 I.253 J7.787 E.26469
G3 X96.391 Y94.061 I-7.476 J3.53 E.24839
G3 X83.319 Y93.553 I-6.38 J-4.287 E.49063
G3 X83.604 Y85.948 I7.481 J-3.528 E.24795
G3 X84.366 Y85.006 I6.55 J4.523 E.03803
M204 P1000
G1 X84.637 Y85.26 F9000
M204 P600
G1 F1200
G3 X91.18 Y82.995 I5.421 J5.079 E.22584
G3 X96.347 Y86.623 I-1.335 J7.395 E.20429
M73 P3 R13
M73 Q3 S13
G3 X96.068 Y93.865 I-7.142 J3.351 E.2361
M73 P4 R13
M73 Q4 S13
G3 X83.651 Y93.375 I-6.056 J-4.09 E.46578
G3 X83.914 Y86.162 I7.154 J-3.351 E.23503
G3 X84.596 Y85.303 I6.144 J4.177 E.03442
M204 P1000
G1 X84.876 Y85.564 F9000
M204 P600
G1 F1200
G3 X89.698 Y83.28 I5.276 J4.904 E.17138
G3 X96.015 Y86.801 I.221 J7.029 E.23816
G3 X95.746 Y93.669 I-6.808 J3.173 E.22384
G3 X83.984 Y93.197 I-5.734 J-3.893 E.44092
G3 X84.238 Y86.356 I6.819 J-3.172 E.22284
G3 X84.835 Y85.608 I5.914 J4.112 E.03003
M204 P1000
G1 X85.112 Y85.86 F9000
M204 P600
G1 F1200
G3 X90.311 Y83.657 I4.993 J4.546 E.18265
G3 X95.681 Y86.978 I-.423 J6.686 E.20614
G3 X95.424 Y93.472 I-6.473 J2.996 E.21158
G3 X84.318 Y93.021 I-5.412 J-3.696 E.416
G3 X84.561 Y86.551 I6.483 J-2.996 E.21069
G3 X85.072 Y85.904 I5.544 J3.855 E.02587
M204 P1000
G1 X85.351 Y86.156 F9000
M204 P600
G1 F1200
G3 X89.714 Y84.034 I4.8 J4.325 E.15594
G3 X95.348 Y87.154 I.208 J6.27 E.21205
G3 X94.811 Y93.658 I-5.885 J2.789 E.21433
G3 X84.652 Y92.845 I-4.802 J-3.873 E.37601
G3 X85.19 Y86.341 I5.883 J-2.788 E.21434
G3 X85.311 Y86.2 I4.961 J4.14 E.00583
M204 P1000
G1 X85.594 Y86.449 F9000
M204 P600
G1 F1200
G3 X90.289 Y84.411 I4.503 J3.947 E.16582
G3 X95.014 Y87.33 I-.4 J5.93 E.18119
G3 X94.518 Y93.42 I-5.553 J2.613 E.20053
G3 X84.987 Y92.671 I-4.509 J-3.634 E.35259
M73 P5 R13
M73 Q5 S13
G3 X85.482 Y86.58 I5.55 J-2.614 E.20057
G3 X85.554 Y86.494 I4.615 J3.816 E.00352
M204 P1000
G1 X85.84 Y86.741 F9000
M204 P600
G1 F1200
G3 X89.731 Y84.788 I4.31 J3.733 E.14006
G3 X94.679 Y87.504 I.193 J5.513 E.18578
G3 X94.227 Y93.18 I-5.222 J2.44 E.18673
G3 X85.321 Y92.496 I-4.219 J-3.393 E.32934
G3 X85.773 Y86.82 I5.221 J-2.44 E.18673
G3 X85.801 Y86.787 I4.377 J3.654 E.00136
M204 P1000
G1 X86.09 Y87.029 F9000
M204 P600
G1 F1200
G3 X90.267 Y85.165 I4.002 J3.356 E.14845
G3 X94.343 Y87.676 I-.378 J5.178 E.15601
G3 X93.937 Y92.939 I-4.893 J2.269 E.17295
G3 X85.657 Y92.324 I-3.929 J-3.152 E.306
G3 X86.053 Y87.076 I4.893 J-2.269 E.17238
M204 P1000
G1 X86.352 Y87.304 F9000
M204 P600
G1 F1200
G3 X89.748 Y85.542 I3.797 J3.166 E.12317
G3 X94.007 Y87.847 I.178 J4.759 E.15929
G3 X93.648 Y92.696 I-4.568 J2.1 E.15912
G3 X85.993 Y92.153 I-3.64 J-2.909 E.2827
G3 X86.32 Y87.354 I4.568 J-2.1 E.15726
M204 P1000
G1 X86.636 Y87.555 F9000
M204 P600
G1 F1200
G3 X86.641 Y87.546 I3.937 J2.497 E.00032
G3 X90.244 Y85.919 I3.445 J2.827 E.12843
G3 X93.779 Y88.302 I-.265 J4.207 E.14014
G3 X93.359 Y92.454 I-4.283 J1.664 E.13582
G3 X86.329 Y91.982 I-3.352 J-2.666 E.25942
G3 X86.604 Y87.606 I4.244 J-1.93 E.14313
M204 P1000
G1 E-2.24 F4200
;WIPE_START
G1 F7200
G1 X86.636 Y87.555 E-.03337
G3 X86.641 Y87.546 I4.078 J2.26 E-.00571
G3 X87.908 Y86.485 I3.445 J2.827 E-.92092
;WIPE_END
G1 Z.4 F720
M486 S0
G1 X92.07 Y91.07 F9000
G1 Z.2 F720
G1 E3.2 F2400
M204 P600
;TYPE:Support material
G1 F1200
G1 X87.93 Y91.07 E.12981
G1 X87.93 Y88.93 E.0671
G1 X92.07 Y88.93 E.12981
G1 X92.07 Y91.013 E.06531
M204 P1000
G1 X91.676 Y90.9 F9000
M204 P600
G1 F1200
G1 X91.676 Y89.269 E.05114
G1 X91.257 Y89.269 E.01314
G1 X91.257 Y90.731 E.04584
G1 X90.838 Y90.731 E.01314
G1 X90.838 Y89.269 E.04584
G1 X90.419 Y89.269 E.01314
G1 X90.419 Y90.731 E.04584
G1 X90 Y90.731 E.01314
G1 X90 Y89.269 E.04584
G1 X89.581 Y89.269 E.01314
G1 X89.581 Y90.731 E.04584
G1 X89.162 Y90.731 E.01314
G1 X89.162 Y89.269 E.04584
G1 X88.743 Y89.269 E.01314
G1 X88.743 Y90.731 E.04584
G1 X88.324 Y90.731 E.01314
G1 X88.324 Y89.1 E.05114
M204 P1000
G1 E-2.24 F4200
;WIPE_START
G1 F7200
M73 P6 R13
M73 Q6 S13
G1 X88.324 Y90.731 E-.90385
G1 X88.425 Y90.731 E-.05615
;WIPE_END
G1 Z.4 F720
G1 X90 Y91.959 F9000
G1 Z.2 F720
G1 E3.2 F2400
M204 P600
;TYPE:External perimeter
;WIDTH:0.419999
G1 F1200
G1 X89.305 Y91.96 E.02179
G3 X87.607 Y91.898 I-.129 J-19.779 E.05329
G1 X87.217 Y91.819 E.01248
;WIDTH:0.404121
G1 X87.142 Y91.694 E.00438
;WIDTH:0.452514
G1 X87.074 Y91.189 E.01735
;WIDTH:0.500907
G1 X87.005 Y90.685 E.01937
;WIDTH:0.542308
G3 X87.019 Y89.157 I10.256 J-.672 E.06351
;WIDTH:0.504278
G1 X87.06 Y88.839 E.0123
;WIDTH:0.471919
G1 X87.101 Y88.52 E.01147
;WIDTH:0.43956
G1 X87.177 Y88.223 E.01011
;WIDTH:0.410029
G1 X87.307 Y88.139 E.00472
;WIDTH:0.419999
G3 X89.122 Y88.045 I1.582 J12.971 E.05703
G1 X91.623 Y88.045 E.07842
G1 X92.697 Y88.139 E.0338
;WIDTH:0.410388
G1 X92.836 Y88.247 E.00538
;WIDTH:0.42893
G1 X92.889 Y88.603 E.01155
;WIDTH:0.464912
G1 X92.942 Y88.959 E.01263
;WIDTH:0.500893
G1 X92.995 Y89.315 E.01371
;WIDTH:0.542307
G3 X92.981 Y90.843 I-10.255 J.672 E.06351
;WIDTH:0.504277
G1 X92.94 Y91.161 E.0123
;WIDTH:0.471918
G1 X92.899 Y91.48 E.01147
;WIDTH:0.439558
G1 X92.823 Y91.777 E.01011
;WIDTH:0.410029
G1 X92.693 Y91.861 E.00472
;WIDTH:0.419999
G3 X90.877 Y91.957 I-1.61 J-13.283 E.05706
G1 X90.06 Y91.958 E.02562
M204 P1000
G1 X90 Y92.339 F9000
M204 P600
;TYPE:Perimeter
G1 F1200
G2 X91.671 Y92.33 I.43 J-75.865 E.05239
G1 X92.272 Y92.28 E.01891
G1 X92.215 Y92.337 E.00253
G1 X91.555 Y92.809 E.02544
G3 X88.283 Y92.712 I-1.552 J-2.871 E.10751
G1 X87.756 Y92.293 E.02111
G2 X89.94 Y92.339 I2.673 J-75.819 E.0685
M204 P1000
G1 E-2.24 F4200
;WIPE_START
G1 F7200
G1 X90 Y92.339 E-.03325
G2 X91.671 Y92.33 I.427 J-75.865 E-.92604
G1 X91.672 Y92.33 E-.00071
;WIPE_END
G1 Z.4 F720
G1 X90.001 Y87.668 F9000
G1 Z.2 F720
G1 E3.2 F2400
M204 P600
G1 F1200
G1 X89.122 Y87.668 E.02756
G2 X87.728 Y87.72 I-.301 J10.56 E.04377
G1 X87.785 Y87.663 E.00253
G1 X88.445 Y87.191 E.02544
G3 X91.717 Y87.288 I1.552 J2.871 E.10751
G1 X92.244 Y87.707 E.02111
G1 X91.623 Y87.668 E.01951
G1 X90.061 Y87.668 E.04898
M204 P1000
G1 E-2.24 F4200
;WIPE_START
G1 F7200
G1 X90.001 Y87.668 E-.03325
G1 X89.122 Y87.668 E-.48711
G2 X88.329 Y87.675 I-.302 J10.56 E-.43964
;WIPE_END
G1 Z.4 F720
G1 X90.013 Y93.58 F9000
G1 Z.2 F720
G1 E3.2 F2400
M204 P600
;TYPE:External perimeter
G1 F1200
G3 X89.271 Y93.509 I-.022 J-3.695 E.02341
G3 X88.031 Y92.994 I1.033 J-4.235 E.04227
G3 X86.9 Y91.991 I4.572 J-6.298 E.04747
;WIDTH:0.440855
G1 X86.714 Y91.554 E.01571
;WIDTH:0.487605
G1 X86.605 Y90.985 E.02142
;WIDTH:0.534354
G1 X86.495 Y90.416 E.02368
;WIDTH:0.540073
G3 X86.566 Y89.087 I5.855 J-.352 E.05514
;WIDTH:0.504278
G1 X86.639 Y88.766 E.01263
;WIDTH:0.471919
G1 X86.712 Y88.445 E.01174
;WIDTH:0.43956
G1 X86.847 Y88.098 E.01228
;WIDTH:0.410029
G1 X87.137 Y87.779 E.01316
;WIDTH:0.419999
G3 X88.268 Y86.856 I4.055 J3.818 E.0459
G3 X90.73 Y86.491 I1.741 J3.259 E.07959
G1 X91.381 Y86.694 E.02138
G3 X92.662 Y87.561 I-2.411 J4.937 E.04866
G1 X93.1 Y88.008 E.01962
;WIDTH:0.440811
G1 X93.286 Y88.446 E.01574
;WIDTH:0.487582
G1 X93.395 Y89.015 E.02142
;WIDTH:0.534353
G1 X93.505 Y89.584 E.02368
;WIDTH:0.540072
G3 X93.434 Y90.913 I-5.855 J.352 E.05514
;WIDTH:0.504277
G1 X93.361 Y91.234 E.01263
;WIDTH:0.471918
G1 X93.288 Y91.555 E.01174
;WIDTH:0.439558
G1 X93.153 Y91.902 E.01228
;WIDTH:0.410029
G1 X92.863 Y92.221 E.01316
;WIDTH:0.419999
G3 X91.732 Y93.144 I-4.055 J-3.817 E.0459
G3 X90.073 Y93.579 I-1.741 J-3.259 E.05427
M204 P1000
G1 X90.463 Y92.504 F9000
M204 P600
;TYPE:Solid infill
;WIDTH:0.459295
G1 F1200
G1 X90.724 Y92.765 E.01278
G3 X90.221 Y92.851 I-.58 J-1.881 E.01772
G1 X90.045 Y92.674 E.00864
G1 X89.458 Y92.676 E.02032
G1 X89.815 Y93.034 E.0175
M204 P1000
G1 E-2.24 F4200
;WIPE_START
G1 F7200
G1 X89.458 Y92.676 E-.28018
G1 X90.045 Y92.674 E-.3253
G1 X90.221 Y92.851 E-.13833
G2 X90.607 Y92.798 I-.076 J-1.967 E-.21619
;WIPE_END
G1 Z.4 F720
G1 X90.177 Y86.969 F9000
G1 Z.2 F720
G1 E3.2 F2400
M204 P600
;WIDTH:0.457876
G1 F1200
G1 X90.537 Y87.33 E.01759
G1 X89.95 Y87.33 E.02025
G1 X89.77 Y87.15 E.00878
G2 X89.27 Y87.236 I.081 J1.964 E.01755
G1 X89.533 Y87.5 E.01286
M204 P1000
M106 S84.15
;LAYER_CHANGE
;Z:0.35
;HEIGHT:0.15
;BEFORE_LAYER_CHANGE
G92 E0.0
;0.35


G1 E-2.24 F4200
;WIPE_START
G1 F7200
G1 X89.27 Y87.236 E-.20651
G3 X89.77 Y87.15 I.58 J1.878 E-.28194
G1 X89.95 Y87.33 E-.14107
G1 X90.537 Y87.33 E-.3253
G1 X90.53 Y87.323 E-.00518
;WIPE_END
G1 Z.35 F720
;AFTER_LAYER_CHANGE
;0.35
M104 S210 ; set temperature
M486 S-1
G1 Z.55
G1 X87.505 Y78.814 F9000
G1 Z.35 F720
G1 E3.2 F2400
;TYPE:Skirt/Brim
;WIDTH:0.42
G1 F1448
G3 X87.93 Y78.723 I2.729 J11.687 E.01051
G3 X91.358 Y78.615 I2.098 J12.184 E.08322
G3 X100.253 Y84.68 I-1.495 J11.748 E.27029
G3 X100.166 Y95.489 I-11.39 J5.313 E.27024
G3 X92.227 Y101.247 I-10.41 J-6 E.24432
G3 X79.747 Y95.321 I-2.18 J-11.512 E.35733
G3 X79.834 Y84.511 I11.389 J-5.314 E.27026
G3 X87.447 Y78.828 I10.4 J5.99 E.23623
G1 X87.529 Y79.196 F9000
G1 F1448
G3 X91.31 Y78.989 I2.513 J11.25 E.092
G3 X99.912 Y84.841 I-1.467 J11.405 E.2611
M73 P7 R13
M73 Q7 S13
G3 X100.147 Y94.645 I-11.164 J5.172 E.24395
G3 X98.079 Y97.635 I-9.715 J-4.508 E.08835
G3 X93.284 Y100.591 I-8.536 J-8.481 E.13751
G3 X80.088 Y95.16 I-3.256 J-10.835 E.37343
G3 X79.853 Y85.355 I11.164 J-5.173 E.24398
G3 X81.921 Y82.365 I9.716 J4.509 E.08835
G3 X86.716 Y79.409 I8.537 J8.482 E.13751
G3 X87.471 Y79.209 I3.326 J11.037 E.01889
G1 E-2.24 F4200
;WIPE_START
G1 F7200
G1 X87.529 Y79.196 E-.03294
G3 X89.182 Y78.951 I2.512 J11.25 E-.92706
;WIPE_END
G1 Z.55 F720
M486 S0
G1 X90 Y91.775 F9000
G1 Z.35 F720
G1 E3.2 F2400
M204 P800
;TYPE:External perimeter
;WIDTH:0.449999
G1 F1448
G1 X87.434 Y91.775 E.06686
;WIDTH:0.485491
G1 X87.344 Y91.753 E.00262
;WIDTH:0.520982
G1 X87.253 Y91.731 E.00285
;WIDTH:0.531515
G1 X87.191 Y91.622 E.0039
G1 X87.208 Y91.121 E.01561
;WIDTH:0.490757
G1 X87.225 Y90.619 E.01436
;WIDTH:0.449999
G1 X87.225 Y88.742 E.04891
;WIDTH:0.48381
G1 X87.219 Y88.538 E.00575
;WIDTH:0.517621
G1 X87.213 Y88.334 E.00618
G1 X87.317 Y88.28 E.00355
;WIDTH:0.48381
G1 X87.422 Y88.225 E.00334
;WIDTH:0.449999
G1 X88.76 Y88.225 E.03486
G1 X92.566 Y88.225 E.09917
;WIDTH:0.485792
G1 X92.662 Y88.253 E.00283
;WIDTH:0.521585
G1 X92.757 Y88.281 E.00302
G1 X92.797 Y88.434 E.00483
;WIDTH:0.493865
G1 X92.775 Y89.381 E.02727
;WIDTH:0.449999
G1 X92.775 Y91.037 E.04315
;WIDTH:0.475414
G1 X92.788 Y91.566 E.01463
;WIDTH:0.521563
G1 X92.759 Y91.716 E.00466
G1 X92.663 Y91.746 E.00307
;WIDTH:0.485781
G1 X92.566 Y91.775 E.00286
;WIDTH:0.449999
G1 X90.06 Y91.775 E.0653
M204 P1000
G1 E-2.24 F4200
;WIPE_START
G1 F7200
G1 X90 Y91.775 E-.03325
G1 X88.328 Y91.775 E-.92675
;WIPE_END
G1 Z.55 F720
G1 X90 Y87.807 F9000
G1 Z.35 F720
G1 E3.2 F2400
M204 P900
;TYPE:Perimeter
G1 F1448
G1 X87.465 Y87.807 E.06605
G1 X87.696 Y87.561 E.00879
G1 X88.189 Y87.179 E.01625
G1 X88.597 Y86.953 E.01215
G1 X89.337 Y86.712 E.02028
G3 X90.386 Y86.671 I.676 J3.827 E.02744
G3 X91.992 Y87.304 I-.5 J3.62 E.04541
G1 X92.525 Y87.807 E.0191
G1 X90.06 Y87.807 E.06423
M204 P1000
G1 E-2.24 F4200
;WIPE_START
G1 F7200
G1 X90 Y87.807 E-.03325
G1 X88.327 Y87.807 E-.92675
;WIPE_END
G1 Z.55 F720
G1 X93.244 Y89.381 F9000
G1 Z.35 F720
G1 E3.2 F2400
M204 P900
;WIDTH:0.582023
G1 F1448
G1 X93.259 Y89.691 E.01064
;WIDTH:0.611218
G3 X93.259 Y90.315 I-4.012 J.31 E.02256
;WIDTH:0.581515
G1 X93.244 Y90.63 E.0108
M204 P1000
G1 E-2.24 F4200
;WIPE_START
G1 F7200
G1 X93.259 Y90.315 E-.17476
G2 X93.259 Y89.691 I-4.012 J-.312 E-.34615
G1 X93.244 Y89.381 E-.17199
;WIPE_END
G1 E-.2671 F4200
G1 Z.55 F720
G1 X90 Y92.193 F9000
G1 Z.35 F720
G1 E3.2 F2400
M204 P900
;WIDTH:0.449999
G1 F1448
G1 X92.525 Y92.193 E.06579
G1 X92.146 Y92.579 E.0141
G1 X91.634 Y92.927 E.01613
G1 X91.208 Y93.127 E.01226
G1 X90.576 Y93.303 E.01709
G3 X89.337 Y93.288 I-.568 J-4.122 E.03241
G1 X88.597 Y93.047 E.02028
G3 X87.715 Y92.454 I1.773 J-3.591 E.02777
G1 X87.481 Y92.193 E.00913
G1 X89.94 Y92.193 E.06407
M204 P1000
G1 E-2.24 F4200
;WIPE_START
G1 F7200
G1 X90 Y92.193 E-.03325
G1 X91.673 Y92.193 E-.92675
;WIPE_END
G1 Z.55 F720
G1 X86.756 Y90.619 F9000
G1 Z.35 F720
G1 E3.2 F2400
M204 P900
;WIDTH:0.582024
G1 F1448
G1 X86.741 Y90.309 E.01064
;WIDTH:0.61122
G3 X86.741 Y89.691 I3.977 J-.309 E.02234
;WIDTH:0.582025
G1 X86.756 Y89.381 E.01064
M204 P1000
G1 E-2.24 F4200
;WIPE_START
G1 F7200
G1 X86.741 Y89.691 E-.17199
G2 X86.741 Y90.309 I3.977 J.309 E-.34282
G1 X86.756 Y90.619 E-.17199
;WIPE_END
